symbols/web/emergency_recording/materialsymbolsoutlined/emergency_recording_wght700fill1_48px.svg

<svg xmlns="http://www.w3.org/2000/svg" height="48" width="48"><path d="M7.45 41.25q-1.95 0-3.325-1.375Q2.75 38.5 2.75 36.55v-25.1q0-1.95 1.375-3.35Q5.5 6.7 7.45 6.7h25.1q1.95 0 3.35 1.4 1.4 1.4 1.4 3.35v10.3l8-8v20.5l-8-8v10.3q0 1.95-1.4 3.325-1.4 1.375-3.35 1.375Zm10.5-7.95h4.1v-5.7l5.1 2.9 2.1-3.55-5.1-2.95 5.1-3-2.1-3.5-5.1 2.9v-5.7h-4.1v5.7l-5.2-2.85-2.05 3.55 5.15 2.9-5.05 2.95 2.05 3.55 5.1-2.9Z"/></svg>

<svg xmlns="http://www.w3.org/2000/svg" height="48" width="48"><path d="M7.45 41.25Q5.5 41.25 4.125 39.875Q2.75 38.5 2.75 36.55V11.45Q2.75 9.5 4.125 8.1Q5.5 6.7 7.45 6.7H32.55Q34.5 6.7 35.9 8.1Q37.3 9.5 37.3 11.45V21.75L45.3 13.75V34.25L37.3 26.25V36.55Q37.3 38.5 35.9 39.875Q34.5 41.25 32.55 41.25ZM17.95 33.3H22.05V27.6L27.15 30.5L29.25 26.95L24.15 24L29.25 21L27.15 17.5L22.05 20.4V14.7H17.95V20.4L12.75 17.55L10.7 21.1L15.85 24L10.8 26.95L12.85 30.5L17.95 27.6Z"/></svg>
